html/dist/img/clock.svg

<svg width="65" height="65" viewBox="0 0 65 65" fill="none" xmlns="http://www.w3.org/2000/svg">
<path d="M52.4062 8.125H53.8281C54.389 8.125 54.8437 7.67029 54.8437 7.10938C54.8437 6.54846 54.389 6.09375 53.8281 6.09375H49.7656C49.4963 6.09375 49.2379 6.20075 49.0475 6.39122C48.857 6.58169 48.75 6.84001 48.75 7.10938V11.1719C48.75 11.7328 49.2047 12.1875 49.7656 12.1875C50.3265 12.1875 50.7812 11.7328 50.7812 11.1719V9.425C56.5272 13.986 60.3641 20.5272 61.5412 27.7683C62.7182 35.0094 61.1505 42.4291 57.145 48.5752C53.1395 54.7213 46.9845 59.1513 39.8847 60.9983C33.1102 62.7606 25.9408 62.05 19.6576 59.0144C19.156 58.772 18.5467 58.9576 18.2843 59.4489C18.0195 59.9448 18.2085 60.563 18.7142 60.8083C25.4057 64.0541 33.0426 64.8307 40.2683 62.9794C47.8239 61.0436 54.3919 56.3722 58.7 49.8703C63.008 43.3684 64.7493 35.4989 63.5866 27.7865C62.4238 20.0741 58.4397 13.0677 52.4062 8.125Z" fill="#E30613"/>
<path d="M14.2187 55.5852C8.45903 51.0287 4.60935 44.4849 3.42471 37.237C2.24006 29.9891 3.80592 22.5601 7.81518 16.407C11.8244 10.2539 17.9878 5.82055 25.0966 3.9765C31.8798 2.21692 39.0567 2.93597 45.3424 5.984C45.8438 6.22711 46.4535 6.04191 46.716 5.55042C46.9806 5.05496 46.7918 4.43714 46.2864 4.19198C39.5947 0.945979 31.9576 0.169223 24.7316 2.02061C17.1761 3.95644 10.608 8.62783 6.30001 15.1297C1.99197 21.6316 0.250652 29.5011 1.41342 37.2135C2.57618 44.926 6.56026 51.9323 12.5937 56.875H11.1719C10.6109 56.875 10.1562 57.3297 10.1562 57.8906C10.1562 58.4515 10.6109 58.9063 11.1719 58.9063H15.2344C15.5037 58.9063 15.7621 58.7993 15.9525 58.6088C16.143 58.4183 16.25 58.16 16.25 57.8906V53.8281C16.25 53.2672 15.7953 52.8125 15.2344 52.8125C14.6734 52.8125 14.2187 53.2672 14.2187 53.8281V55.5852Z" fill="#E30613"/>
<path d="M9.14062 32.5C9.14063 37.12 10.5106 41.6363 13.0774 45.4778C15.6442 49.3192 19.2924 52.3132 23.5608 54.0812C27.8291 55.8493 32.5259 56.3119 37.0572 55.4105C41.5885 54.5092 45.7507 52.2844 49.0176 49.0176C52.2844 45.7507 54.5092 41.5885 55.4105 37.0572C56.3119 32.5259 55.8493 27.8291 54.0812 23.5608C52.3132 19.2924 49.3192 15.6442 45.4778 13.0774C41.6363 10.5106 37.12 9.14062 32.5 9.14062C26.3047 9.14063 20.3632 11.6017 15.9824 15.9824C11.6017 20.3632 9.14063 26.3047 9.14062 32.5ZM53.8281 32.5C53.8281 36.7183 52.5773 40.8419 50.2337 44.3493C47.8901 47.8567 44.5591 50.5903 40.6619 52.2046C36.7647 53.8189 32.4763 54.2413 28.3391 53.4183C24.2018 52.5954 20.4015 50.5641 17.4187 47.5813C14.4359 44.5985 12.4046 40.7982 11.5817 36.6609C10.7587 32.5237 11.1811 28.2353 12.7954 24.3381C14.4097 20.4409 17.1433 17.1099 20.6507 14.7663C24.1581 12.4227 28.2817 11.1719 32.5 11.1719C38.1566 11.1719 43.5815 13.4189 47.5813 17.4187C51.5811 21.4185 53.8281 26.8434 53.8281 32.5Z" fill="#E30613"/>
<path d="M13.2031 32.5C13.2031 36.3166 14.3349 40.0474 16.4552 43.2208C18.5756 46.3941 21.5894 48.8675 25.1154 50.328C28.6415 51.7885 32.5214 52.1707 36.2646 51.4261C40.0079 50.6815 43.4462 48.8437 46.145 46.145C48.8437 43.4462 50.6815 40.0079 51.4261 36.2646C52.1707 32.5214 51.7885 28.6414 50.328 25.1154C48.8675 21.5894 46.3941 18.5756 43.2208 16.4552C40.0474 14.3349 36.3166 13.2031 32.5 13.2031C27.3822 13.2031 22.4739 15.2362 18.8551 18.855C15.2362 22.4739 13.2031 27.3822 13.2031 32.5ZM42.6564 22.3639C43.0562 22.7526 43.6941 22.7481 44.0884 22.3538L45.4086 21.0336C47.9998 23.9249 49.5356 27.6086 49.7656 31.4844H47.7344C47.1735 31.4844 46.7188 31.9391 46.7188 32.5C46.7188 33.0609 47.1735 33.5156 47.7344 33.5156H49.7656C49.5396 37.3806 48.015 41.0559 45.4391 43.9461L44.1289 42.6359C43.7307 42.2377 43.085 42.2377 42.6867 42.6359C42.2885 43.0342 42.2885 43.6799 42.6867 44.0781L43.9969 45.3883C41.1003 47.9932 37.4045 49.5367 33.5156 49.7656V47.7344C33.5156 47.1735 33.0609 46.7188 32.5 46.7188C31.9391 46.7188 31.4844 47.1735 31.4844 47.7344V49.7656C27.6194 49.5396 23.9441 48.015 21.0539 45.4391L22.3641 44.1289C22.7623 43.7307 22.7623 43.085 22.3641 42.6867C21.9658 42.2885 21.3201 42.2885 20.9219 42.6867L19.6117 43.9969C17.0252 41.0933 15.4999 37.3983 15.2852 33.5156H17.2656C17.8265 33.5156 18.2813 33.0609 18.2813 32.5C18.2813 31.9391 17.8265 31.4844 17.2656 31.4844H15.2852C15.5112 27.6194 17.0357 23.9441 19.6117 21.0539L20.9219 22.3641C21.3201 22.7623 21.9658 22.7623 22.3641 22.3641C22.7623 21.9658 22.7623 21.3201 22.3641 20.9219L21.0539 19.6117C23.9441 17.0357 27.6194 15.5112 31.4844 15.2852V17.2656C31.4844 17.8265 31.9391 18.2812 32.5 18.2812C33.0609 18.2812 33.5156 17.8265 33.5156 17.2656V15.2852C37.3806 15.5112 41.0559 17.0357 43.9461 19.6117L42.6462 20.9116C42.2439 21.3139 42.2486 21.9674 42.6564 22.3639Z" fill="#E30613"/>
<path d="M33.5156 21.3281C33.5156 20.7672 33.0609 20.3125 32.5 20.3125C31.9391 20.3125 31.4844 20.7672 31.4844 21.3281V32.5C31.4836 32.6337 31.5092 32.7662 31.5597 32.8899C31.6103 33.0136 31.6848 33.1262 31.7789 33.2211L37.1519 38.5941C37.5499 38.9921 38.1954 38.9921 38.5934 38.5941C38.9917 38.1957 38.9915 37.5499 38.5928 37.1519L33.5156 32.0836V21.3281Z" fill="#E30613"/>
</svg>

<svg width="65" height="65" viewBox="0 0 65 65" fill="none" xmlns="http://www.w3.org/2000/svg"><path d="M52.406 8.125h1.422a1.016 1.016 0 000-2.031h-4.062a1.015 1.015 0 00-1.016 1.015v4.063a1.016 1.016 0 002.031 0V9.425a29.453 29.453 0 01-31.123 49.59 1.04 1.04 0 00-1.374.434.988.988 0 00.43 1.36A31.484 31.484 0 0052.406 8.124zm-38.187 47.46A29.454 29.454 0 0145.342 5.984a1.04 1.04 0 001.374-.434.988.988 0 00-.43-1.358 31.485 31.485 0 00-33.692 52.683h-1.422a1.016 1.016 0 100 2.031h4.062a1.015 1.015 0 001.016-1.015v-4.063a1.016 1.016 0 00-2.031 0v1.757z" fill="#E30613"/><path d="M9.14 32.5a23.36 23.36 0 1046.72 0 23.36 23.36 0 00-46.72 0zm44.688 0a21.328 21.328 0 11-42.656 0 21.328 21.328 0 0142.656 0z" fill="#E30613"/><path d="M13.203 32.5a19.298 19.298 0 1038.595 0 19.298 19.298 0 00-38.595 0zm29.453-10.136a1.02 1.02 0 001.432-.01l1.32-1.32a17.184 17.184 0 014.358 10.45h-2.032a1.016 1.016 0 000 2.032h2.032a17.184 17.184 0 01-4.327 10.43l-1.31-1.31a1.02 1.02 0 00-1.442 1.442l1.31 1.31a17.185 17.185 0 01-10.481 4.378v-2.032a1.016 1.016 0 00-2.032 0v2.032a17.184 17.184 0 01-10.43-4.327l1.31-1.31a1.02 1.02 0 00-1.442-1.442l-1.31 1.31a17.184 17.184 0 01-4.327-10.481h1.98a1.016 1.016 0 100-2.032h-1.98a17.184 17.184 0 014.327-10.43l1.31 1.31a1.02 1.02 0 001.442-1.442l-1.31-1.31a17.184 17.184 0 0110.43-4.327v1.98a1.016 1.016 0 002.032 0v-1.98c3.865.226 7.54 1.75 10.43 4.327l-1.3 1.3a1.02 1.02 0 00.01 1.452z" fill="#E30613"/><path d="M33.516 21.328a1.016 1.016 0 00-2.032 0V32.5a1.016 1.016 0 00.295.721l5.373 5.373a1.02 1.02 0 101.44-1.442l-5.076-5.068V21.328z" fill="#E30613"/></svg>
